packages/core/src/svgs/wallets/branded/ledger.svg

<svg width="24" height="24" viewBox="0 0 24 24" fill="none" xmlns="http://www.w3.org/2000/svg">
<path d="M2 15.889V21H9.52286V19.8665H3.0961V15.889H2ZM20.9039 15.889V19.8665H14.4771V20.9997H22V15.889H20.9039ZM9.53378 8.11105V15.8887H14.4771V14.8665H10.6299V8.11105H9.53378ZM2 3V8.11105H3.0961V4.13322H9.52286V3H2ZM14.4771 3V4.13322H20.9039V8.11105H22V3H14.4771Z" fill="black"/>
</svg>

<svg xmlns="http://www.w3.org/2000/svg" width="24" height="24" fill="none" viewBox="0 0 24 24">
    <path fill="#000" d="M2 15.889V21h7.523v-1.134H3.096V15.89zm18.904 0v3.977h-6.427V21H22v-5.111zM9.534 8.111v7.778h4.943v-1.022H10.63V8.11zM2 3v5.111h1.096V4.133h6.427V3zm12.477 0v1.133h6.427v3.978H22V3z"/>
</svg>
